X: 151
T: Da qiuqian
%%abc-version 2.0
%%abcx-abcm2ps-target-version 5.9.1 (29 Sep 2008)
%%abc-creator hum2abc beta
%%abcx-conversion-date 2013/10/02 07:52:29
%%abc-edited-by Helmut Schaffrath
%%humdrum-veritas 425198582
%%humdrum-veritas-data 3403890553
%%continueall 1
%%barnumbers 0
L: 1/8
M: 2/4
K: Bb
z b b3/ d/ [I:setbarnb 1]| 
f gb2 | 
b> c' d' d'/ c'/ | 
d'> c' g b- | 
b d' b d' | 
b d'/ c'/b2 | 
d> f g f | 
d4 | 
f> gb2 | 
b> c' d' d' | 
d'> c'b2 | 
d'> f' a g | 
f g/ f/d2 | 
b b g/ b/ g/ f/ | 
d' g/ f/d2 | 
b b/ g/ b b | 
d> fd2 | 
b> c' d' d' | 
c' d'/ c'/b2 | 
d' bd'2 | 
f g/ g/ f g/ g/ | 
f ff2 |]  



